public/images/background/hat-bear.svg

<svg width="208" height="200" viewBox="0 0 208 200" fill="none" xmlns="http://www.w3.org/2000/svg">
<ellipse cx="90.5" cy="192.5" rx="90.5" ry="7.5" fill="black" fill-opacity="0.2"/>
<path d="M154.517 12.1908C157.744 13.794 159.076 17.7708 159.178 20.8751C159.218 22.1012 157.948 22.7933 156.842 22.2636C145.498 16.8336 149.643 9.76985 154.517 12.1908Z" fill="#725D41" stroke="black"/>
<path d="M169.517 131.191C170.017 128.691 170.717 122.791 169.517 119.191C168.317 115.591 159.017 114.691 154.517 114.691" stroke="black" stroke-width="3"/>
<path d="M119.017 175.191C112.079 177.118 107.517 170.691 93.5166 154.191C92.3191 152.352 88.9708 148.413 86.4765 145.548C85.3408 144.244 85.9727 141.027 87.4175 140.076C96.2162 134.288 117.134 118.32 130.644 113.869C131.855 113.47 133.04 114.397 133.05 115.672C133.247 140.721 129.256 156.317 133.517 160.191C139.017 165.191 143.517 165.191 143.517 168.691C143.517 172.191 128.017 172.691 119.017 175.191Z" fill="#725D41" stroke="black"/>
<path d="M178.515 30.6908C182.536 33.6146 192.427 34.5348 198.046 34.6719C198.921 34.6932 199.711 35.279 199.904 36.1331C204.649 57.1319 163.253 55.9642 151.515 68.1908C139.516 80.6908 154.87 98.4649 164.516 100.691C177.517 103.691 176.516 117.191 168.516 116.691C160.938 116.217 145.036 114.943 135.159 113.099C133.495 112.788 131.928 114.586 132.177 116.26C132.942 121.425 131.724 128.915 123.515 134.691C110.015 144.191 77.5166 149.691 55.5166 135.191C33.5166 120.691 58.4628 67.7432 68.0155 58.1908C86.0159 40.1908 135.484 20.1908 151.515 20.1908C177.015 20.1908 173.015 26.6908 178.515 30.6908Z" fill="#725D41" stroke="black"/>
<path d="M180.55 31.8172C185.255 33.8598 193.224 34.5542 198.046 34.6719C198.921 34.6932 199.706 35.2636 199.9 36.1175C202.106 45.8376 194.432 50.8112 184.384 54.5598C183.835 54.7645 183.221 54.7194 182.735 54.3917C178.5 51.5306 172.8 44.0811 177.525 32.8079C177.999 31.6772 179.426 31.3289 180.55 31.8172Z" fill="#B5966E" stroke="black"/>
<path d="M173.017 30.1908C173.017 30.1908 173.517 33.6908 165.017 29.6908" stroke="black" stroke-width="2" stroke-linecap="round"/>
<path d="M40.0167 133.691C40.3561 140.141 49.243 138.404 54.5734 136.304C55.8199 135.813 56.0632 134.237 55.1159 133.29L50.3191 128.493C50.1197 128.294 49.8822 128.137 49.6154 128.046C46.0168 126.812 39.6314 126.372 40.0167 133.691Z" fill="#725D41" stroke="black"/>
<path d="M200.517 36.6908C200.517 38.3477 198.726 39.6908 196.517 39.6908C194.308 39.6908 195.017 38.3477 195.017 36.6908C195.017 35.0339 194.308 33.6908 196.517 33.6908C198.726 33.6908 200.517 35.0339 200.517 36.6908Z" fill="black"/>
<path d="M200.517 168.691H156.517M200.517 168.691C200.517 162.845 198.236 157.531 194.517 153.591M200.517 168.691C200.517 174.488 198.275 179.761 194.61 183.691M178.517 190.691V146.691M178.517 190.691C172.163 190.691 166.439 187.998 162.423 183.691M178.517 190.691C184.87 190.691 190.594 187.998 194.61 183.691M156.517 168.691C156.517 174.488 158.759 179.761 162.423 183.691M156.517 168.691C156.517 162.845 158.797 157.531 162.517 153.591M178.517 146.691C184.821 146.691 190.506 149.342 194.517 153.591M178.517 146.691C172.212 146.691 166.528 149.342 162.517 153.591M194.517 153.591L162.423 183.691M162.517 153.591L194.61 183.691" stroke="black"/>
<path d="M178.517 154.191C182.672 154.191 186.41 155.929 189.063 158.74C191.521 161.343 193.017 164.834 193.017 168.691C193.017 172.515 191.546 175.98 189.125 178.576C186.468 181.425 182.705 183.191 178.517 183.191C174.329 183.191 170.565 181.425 167.908 178.576C165.487 175.98 164.017 172.515 164.017 168.691C164.017 164.834 165.512 161.343 167.97 158.74C170.623 155.929 174.361 154.191 178.517 154.191ZM194.976 184.032C198.723 180.013 201.017 174.619 201.017 168.691C201.017 162.712 198.684 157.277 194.88 153.248C190.779 148.903 184.964 146.191 178.517 146.191C172.069 146.191 166.255 148.903 162.153 153.248C158.349 157.277 156.017 162.712 156.017 168.691C156.017 174.619 158.31 180.013 162.057 184.032C166.164 188.436 172.019 191.191 178.517 191.191C185.014 191.191 190.869 188.436 194.976 184.032Z" fill="#858585" stroke="black"/>
<path d="M98.5166 168.691H54.5166M98.5166 168.691C98.5166 162.845 96.2363 157.531 92.5166 153.591M98.5166 168.691C98.5166 174.488 96.2745 179.761 92.6102 183.691M76.5166 190.691V146.691M76.5166 190.691C70.1633 190.691 64.439 187.998 60.423 183.691M76.5166 190.691C82.8699 190.691 88.5942 187.998 92.6102 183.691M54.5166 168.691C54.5166 174.488 56.7587 179.761 60.423 183.691M54.5166 168.691C54.5166 162.845 56.7969 157.531 60.5166 153.591M76.5166 146.691C82.8207 146.691 88.5055 149.342 92.5166 153.591M76.5166 146.691C70.2125 146.691 64.5277 149.342 60.5166 153.591M92.5166 153.591L60.423 183.691M60.5166 153.591L92.6102 183.691" stroke="black"/>
<path d="M91.0166 168.691C91.0166 176.699 84.5247 183.191 76.5166 183.191C68.5085 183.191 62.0166 176.699 62.0166 168.691C62.0166 160.683 68.5085 154.191 76.5166 154.191C84.5247 154.191 91.0166 160.683 91.0166 168.691ZM76.5166 191.191C88.943 191.191 99.0166 181.117 99.0166 168.691C99.0166 156.264 88.943 146.191 76.5166 146.191C64.0902 146.191 54.0166 156.264 54.0166 168.691C54.0166 181.117 64.0902 191.191 76.5166 191.191Z" fill="#858585" stroke="black"/>
<path d="M159.517 168.423C159.517 158.054 167.846 149.691 178.068 149.691C181.332 149.691 184.391 150.539 187.051 152.029C188.496 152.839 190.324 152.323 191.134 150.877C191.944 149.432 191.428 147.604 189.983 146.794C186.452 144.817 182.386 143.691 178.068 143.691C164.485 143.691 153.517 154.787 153.517 168.423C153.517 170.483 153.767 172.49 154.242 174.41C154.639 176.019 156.265 177.001 157.873 176.603C159.482 176.206 160.464 174.58 160.067 172.972C159.708 171.518 159.517 169.995 159.517 168.423Z" fill="#EBF479" stroke="black" stroke-linecap="round"/>
<circle cx="123.517" cy="166.691" r="7" fill="#3D405A" stroke="#1E1E1E" stroke-width="4"/>
<path d="M172.752 33.2563C172.33 35.0435 170.54 36.1502 168.752 35.7283C166.965 35.3064 165.859 33.5156 166.28 31.7284C166.702 29.9413 167.729 31.3066 169.517 31.7286C171.304 32.1505 173.174 31.4692 172.752 33.2563Z" fill="black"/>
<path d="M34.0314 170.365C34.0314 170.365 28.3812 171.124 21.0135 169.635" stroke="black" stroke-linecap="round"/>
<path d="M39.5473 164.721C39.5473 164.721 33.8971 165.48 26.5293 163.991" stroke="black" stroke-linecap="round"/>
<path d="M160.552 63.7063C157.65 63.4571 150.893 60.3264 151.455 58.8582C152.018 57.39 154.233 56.8926 156.459 58.3917C158.805 59.9718 162.718 61.7554 165.172 61.2768C164.841 62.1905 163.453 63.9554 160.552 63.7063Z" fill="#4B565C" stroke="black"/>
<path d="M154.294 59.3231C156.491 59.2116 154.689 56.6101 153.6 55.7661L147.495 56.957C148.789 57.4969 152.098 59.4347 154.294 59.3231Z" fill="#4B565C" stroke="black"/>
<path d="M158.873 50.3052C156.148 46.0833 153.73 36.1238 152.862 31.6719C174.842 27.3848 175.994 20.2941 173.823 17.2846C169.275 11.5697 154.863 2.12749 133.598 10.0779C107.016 20.016 123.468 55.6262 132.152 57.4976C140.835 59.369 162.279 55.5826 158.873 50.3052Z" fill="#FFD152" stroke="black"/>
<path d="M142.271 30.1725C142.587 27.7341 143.648 29.1116 161.36 24.4686C169.424 21.9451 173.233 18.3237 174.13 16.8284C179.193 15.7089 188.23 14.7912 183.874 20.0773C178.429 26.685 162.095 30.267 154.77 31.2996C147.445 32.3321 141.954 32.611 142.271 30.1725Z" fill="white" stroke="black"/>
<path d="M166 16C164.966 14.3333 161.862 11.7692 156 11" stroke="black" stroke-linecap="round"/>
<path d="M154 11C153.429 11 152.571 11 152 11" stroke="black" stroke-linecap="round"/>
<path d="M138.017 14.6909C142.277 12.7248 147.051 16.217 149.921 19.2849C150.794 20.2182 150.408 21.6909 149.197 22.0973C137.294 26.0901 131.901 17.5135 138.017 14.6909Z" fill="#725D41" stroke="black"/>
<path d="M172.677 131.752C172.677 129.444 170.712 127.489 168.253 127.813C162.667 128.549 147.13 130.924 129.634 136.484C112.855 141.817 94.0573 150.146 80.5571 162.944C79.6495 162.463 78.6143 162.191 77.5166 162.191C73.9268 162.191 71.0166 165.101 71.0166 168.691C71.0166 172.281 73.9268 175.191 77.5166 175.191C80.2111 175.191 82.5215 173.551 83.5072 171.217C95.9219 171.667 106.544 171.973 116.383 170.168C126.814 168.254 136.326 163.983 146.336 155.194C157.365 145.509 164.419 140.937 168.706 139.031C168.838 145.413 169.42 151.187 170.455 156.041C171.318 160.087 172.521 163.618 174.129 166.341C173.803 166.986 173.619 167.715 173.619 168.486C173.619 171.116 175.752 173.249 178.382 173.249C181.012 173.249 183.145 171.116 183.145 168.486C183.145 165.856 181.012 163.723 178.382 163.723C178.014 163.723 177.655 163.765 177.31 163.845C176.139 161.708 175.136 158.813 174.367 155.207C173.256 149.996 172.677 143.518 172.677 136.191V131.752ZM115.661 166.233C106.364 167.939 96.2498 167.674 83.851 167.227C83.7369 166.731 83.5661 166.257 83.346 165.812C96.1935 153.649 114.295 145.556 130.846 140.296C147.933 134.866 163.137 132.525 168.677 131.792V134.73C163.779 136.513 155.952 141.427 143.697 152.188C134.219 160.51 125.366 164.453 115.661 166.233Z" fill="#EBF479" stroke="black"/>
<path d="M57.4475 164.664C59.3126 156.126 67.0137 149.69 76.2658 149.69C86.9297 149.69 95.5166 158.229 95.5166 168.69C95.5166 170.347 96.8598 171.69 98.5166 171.69C100.173 171.69 101.517 170.347 101.517 168.69C101.517 154.851 90.1792 143.69 76.2658 143.69C64.1794 143.69 54.0498 152.104 51.5858 163.384C51.2322 165.002 52.2577 166.601 53.8764 166.955C55.4951 167.308 57.0939 166.283 57.4475 164.664Z" fill="#EBF479" stroke="black" stroke-linecap="round"/>
<path d="M138.517 128.691C139.567 117.926 135.161 114.828 131.145 114.26C130.737 114.203 130.326 114.303 129.972 114.512L83.6051 141.869C82.2563 142.665 82.2893 144.653 83.641 145.444C94.5482 151.826 115.255 165.829 125.017 166.191C138.517 166.691 148.517 156.691 150.017 153.191C151.517 149.691 144.517 148.691 141.017 148.691C137.517 148.691 136.517 149.191 138.517 128.691Z" fill="#725D41"/>
<path d="M130.517 114.191C134.683 114.524 139.622 117.361 138.517 128.691C136.517 149.191 137.517 148.691 141.017 148.691C144.517 148.691 151.517 149.691 150.017 153.191C148.517 156.691 138.517 166.691 125.017 166.191C114.217 165.791 90.0166 148.691 80.5166 143.691" stroke="black"/>
<path d="M187.5 144.669C189.771 144.835 191.998 144.9 194 144.91M187.5 144.669L189.5 119.352M187.5 144.669C185.128 144.496 182.81 144.158 180.75 143.778M172.335 125.5L172.151 121.386C172.071 119.586 173.583 118.122 175.379 118.261L180.75 118.676M172.335 125.5L205.722 128M172.335 125.5L172.702 133.719M205.722 128L206.591 124.108C206.989 122.326 205.715 120.604 203.894 120.463L198.5 120.047M205.722 128L203.861 136.334M172.702 133.719L172.975 139.84C173.032 141.1 173.869 142.188 175.088 142.51C176.462 142.872 178.444 143.352 180.75 143.778M172.702 133.719L203.861 136.334M203.861 136.334L202.483 142.504C202.196 143.79 201.103 144.736 199.786 144.795C198.357 144.86 196.332 144.922 194 144.91M198.5 120.047L194 144.91M198.5 120.047L189.5 119.352M189.5 119.352L180.75 118.676M180.75 118.676V143.778" stroke="black"/>
</svg>

<svg width="208" height="200" viewBox="0 0 208 200" fill="none" xmlns="http://www.w3.org/2000/svg"><ellipse cx="90.5" cy="192.5" rx="90.5" ry="7.5" fill="#000" fill-opacity=".2"/><path d="M154.517 12.19c3.227 1.604 4.559 5.58 4.661 8.685.04 1.226-1.23 1.918-2.336 1.389-11.344-5.43-7.199-12.494-2.325-10.073z" fill="#725D41" stroke="#000"/><path d="M169.517 131.191c.5-2.5 1.2-8.4 0-12-1.2-3.6-10.5-4.5-15-4.5" stroke="#000" stroke-width="3"/><path d="M119.017 175.191c-6.938 1.927-11.5-4.5-25.5-21-1.198-1.839-4.546-5.778-7.04-8.643-1.136-1.304-.504-4.521.94-5.472 8.8-5.788 29.717-21.756 43.227-26.207 1.211-.399 2.396.528 2.406 1.803.197 25.049-3.794 40.645.467 44.519 5.5 5 10 5 10 8.5s-15.5 4-24.5 6.5z" fill="#725D41" stroke="#000"/><path d="M178.515 30.69c4.021 2.925 13.912 3.845 19.531 3.982.875.021 1.665.607 1.858 1.461 4.745 20.999-36.651 19.831-48.389 32.058-11.999 12.5 3.355 30.274 13.001 32.5 13.001 3 12 16.5 4 16-7.578-.474-23.48-1.748-33.357-3.592-1.664-.311-3.231 1.487-2.982 3.161.765 5.165-.453 12.655-8.662 18.431-13.5 9.5-45.998 15-67.998.5-22-14.5 2.946-67.448 12.498-77 18-18 67.469-38 83.5-38 25.5 0 21.5 6.5 27 10.5z" fill="#725D41" stroke="#000"/><path d="M180.55 31.817c4.705 2.043 12.674 2.737 17.496 2.855.875.021 1.66.592 1.854 1.446 2.206 9.72-5.468 14.693-15.516 18.442-.549.204-1.163.16-1.649-.168-4.235-2.861-9.935-10.31-5.21-21.584.474-1.13 1.901-1.48 3.025-.99z" fill="#B5966E" stroke="#000"/><path d="M173.017 30.19s.5 3.5-8-.5" stroke="#000" stroke-width="2" stroke-linecap="round"/><path d="M40.017 133.691c.34 6.45 9.226 4.713 14.556 2.613 1.247-.491 1.49-2.067.543-3.014l-4.797-4.797a1.844 1.844 0 0 0-.704-.447c-3.598-1.234-9.984-1.674-9.598 5.645z" fill="#725D41" stroke="#000"/><path d="M200.517 36.69c0 1.658-1.791 3-4 3s-1.5-1.342-1.5-3c0-1.656-.709-3 1.5-3s4 1.344 4 3z" fill="#000"/><path d="M200.517 168.691h-44m44 0c0-5.846-2.281-11.16-6-15.1m6 15.1a21.92 21.92 0 0 1-5.907 15m-16.093 7v-44m0 44a21.94 21.94 0 0 1-16.094-7m16.094 7a21.939 21.939 0 0 0 16.093-7m-38.093-15c0 5.797 2.242 11.07 5.906 15m-5.906-15c0-5.846 2.28-11.16 6-15.1m16-6.9a21.937 21.937 0 0 1 16 6.9m-16-6.9a21.935 21.935 0 0 0-16 6.9m32 0-32.094 30.1m.094-30.1 32.093 30.1" stroke="#000"/><path d="M178.517 154.191c4.155 0 7.893 1.738 10.546 4.549a14.422 14.422 0 0 1 3.954 9.951c0 3.824-1.471 7.289-3.892 9.885a14.44 14.44 0 0 1-10.608 4.615 14.443 14.443 0 0 1-10.609-4.615 14.422 14.422 0 0 1-3.891-9.885c0-3.857 1.495-7.348 3.953-9.951a14.437 14.437 0 0 1 10.547-4.549zm16.459 29.841a22.425 22.425 0 0 0 6.041-15.341 22.423 22.423 0 0 0-6.137-15.443 22.435 22.435 0 0 0-16.363-7.057 22.437 22.437 0 0 0-16.364 7.057 22.422 22.422 0 0 0-6.136 15.443 22.425 22.425 0 0 0 6.04 15.341 22.442 22.442 0 0 0 16.46 7.159 22.441 22.441 0 0 0 16.459-7.159z" fill="#858585" stroke="#000"/><path d="M98.517 168.691h-44m44 0c0-5.846-2.28-11.16-6-15.1m6 15.1a21.92 21.92 0 0 1-5.907 15m-16.093 7v-44m0 44a21.94 21.94 0 0 1-16.094-7m16.094 7a21.94 21.94 0 0 0 16.093-7m-38.093-15c0 5.797 2.242 11.07 5.906 15m-5.906-15c0-5.846 2.28-11.16 6-15.1m16-6.9a21.937 21.937 0 0 1 16 6.9m-16-6.9a21.937 21.937 0 0 0-16 6.9m32 0-32.094 30.1m.094-30.1 32.093 30.1" stroke="#000"/><path d="M91.017 168.691c0 8.008-6.492 14.5-14.5 14.5s-14.5-6.492-14.5-14.5 6.491-14.5 14.5-14.5c8.008 0 14.5 6.492 14.5 14.5zm-14.5 22.5c12.426 0 22.5-10.074 22.5-22.5 0-12.427-10.074-22.5-22.5-22.5-12.427 0-22.5 10.073-22.5 22.5 0 12.426 10.073 22.5 22.5 22.5z" fill="#858585" stroke="#000"/><path d="M159.517 168.423c0-10.369 8.329-18.732 18.551-18.732 3.264 0 6.323.848 8.983 2.338a3 3 0 1 0 2.932-5.235 24.321 24.321 0 0 0-11.915-3.103c-13.583 0-24.551 11.096-24.551 24.732 0 2.06.25 4.067.725 5.987a3 3 0 0 0 5.825-1.438 18.953 18.953 0 0 1-.55-4.549z" fill="#EBF479" stroke="#000" stroke-linecap="round"/><circle cx="123.517" cy="166.691" r="7" fill="#3D405A" stroke="#1E1E1E" stroke-width="4"/><path d="M172.752 33.256a3.325 3.325 0 1 1-6.472-1.528c.422-1.787 1.449-.421 3.237 0 1.787.422 3.657-.259 3.235 1.528z" fill="#000"/><path d="M34.031 170.365s-5.65.759-13.017-.73m18.533-4.914s-5.65.759-13.018-.73" stroke="#000" stroke-linecap="round"/><path d="M160.552 63.706c-2.902-.249-9.659-3.38-9.097-4.848.563-1.468 2.778-1.965 5.004-.466 2.346 1.58 6.259 3.363 8.713 2.885-.331.913-1.719 2.678-4.62 2.43z" fill="#4B565C" stroke="#000"/><path d="M154.294 59.323c2.197-.111.395-2.713-.694-3.557l-6.105 1.191c1.294.54 4.603 2.478 6.799 2.366z" fill="#4B565C" stroke="#000"/><path d="M158.873 50.305c-2.725-4.222-5.143-14.181-6.011-18.633 21.98-4.287 23.132-11.378 20.961-14.387-4.548-5.715-18.96-15.158-40.225-7.207-26.582 9.938-10.13 45.548-1.446 47.42 8.683 1.871 30.127-1.915 26.721-7.193z" fill="#FFD152" stroke="#000"/><path d="M142.271 30.172c.316-2.438 1.377-1.06 19.089-5.703 8.064-2.524 11.873-6.145 12.77-7.64 5.063-1.12 14.1-2.038 9.744 3.248-5.445 6.608-21.779 10.19-29.104 11.223-7.325 1.032-12.816 1.311-12.499-1.128z" fill="#fff" stroke="#000"/><path d="M166 16c-1.034-1.667-4.138-4.23-10-5m-2 0h-2" stroke="#000" stroke-linecap="round"/><path d="M138.017 14.69c4.26-1.965 9.034 1.527 11.904 4.595.873.933.487 2.406-.724 2.812-11.903 3.993-17.296-4.584-11.18-7.406z" fill="#725D41" stroke="#000"/><path d="M172.677 131.752c0-2.308-1.965-4.263-4.424-3.939-5.586.736-21.123 3.111-38.619 8.671-16.779 5.333-35.577 13.662-49.077 26.46a6.5 6.5 0 1 0 2.95 8.273c12.415.45 23.037.756 32.876-1.049 10.431-1.914 19.943-6.185 29.953-14.974 11.029-9.685 18.083-14.257 22.37-16.163.132 6.382.714 12.156 1.749 17.01.863 4.046 2.066 7.577 3.674 10.3a4.764 4.764 0 1 0 3.181-2.496c-1.171-2.137-2.174-5.032-2.943-8.638-1.111-5.211-1.69-11.689-1.69-19.016v-4.439zm-57.016 34.481c-9.297 1.706-19.411 1.441-31.81.994a6.454 6.454 0 0 0-.505-1.415c12.847-12.163 30.949-20.256 47.5-25.516 17.087-5.43 32.291-7.771 37.831-8.504v2.938c-4.898 1.783-12.725 6.697-24.98 17.458-9.478 8.322-18.331 12.265-28.036 14.045z" fill="#EBF479" stroke="#000"/><path d="M57.447 164.664c1.866-8.538 9.567-14.974 18.819-14.974 10.664 0 19.25 8.539 19.25 19a3 3 0 1 0 6.001 0c0-13.839-11.338-25-25.251-25-12.087 0-22.216 8.414-24.68 19.694a3 3 0 0 0 5.861 1.28z" fill="#EBF479" stroke="#000" stroke-linecap="round"/><path d="M138.517 128.691c1.05-10.765-3.356-13.863-7.372-14.431a1.819 1.819 0 0 0-1.173.252l-46.367 27.357c-1.349.796-1.316 2.784.036 3.575 10.907 6.382 31.614 20.385 41.376 20.747 13.5.5 23.5-9.5 25-13s-5.5-4.5-9-4.5-4.5.5-2.5-20z" fill="#725D41"/><path d="M130.517 114.191c4.166.333 9.105 3.17 8 14.5-2 20.5-1 20 2.5 20s10.5 1 9 4.5-11.5 13.5-25 13c-10.8-.4-35-17.5-44.5-22.5m106.983.978c2.271.166 4.498.231 6.5.241m-6.5-.241 2-25.317m-2 25.317c-2.372-.173-4.69-.511-6.75-.891m-8.415-18.278-.184-4.114a3 3 0 0 1 3.228-3.125l5.371.415m-8.415 6.824 33.387 2.5m-33.387-2.5.367 8.219m33.02-5.719.869-3.892a3 3 0 0 0-2.697-3.645l-5.394-.416m7.222 7.953-1.861 8.334m-31.159-2.615.273 6.121c.057 1.26.894 2.348 2.113 2.67 1.374.362 3.356.842 5.662 1.268m-8.048-10.059 31.159 2.615m0 0-1.378 6.17c-.287 1.286-1.38 2.232-2.697 2.291-1.429.065-3.454.127-5.786.115m4.5-24.863L194 144.91m4.5-24.863-9-.695m0 0-8.75-.676m0 0v25.102" stroke="#000"/></svg>
